packages/core/src/svgs/tokens/mono/EWT.svg

<svg width="24" height="24" viewBox="0 0 24 24" fill="none" xmlns="http://www.w3.org/2000/svg">
<path d="M21.1927 6.47587C20.9738 5.94194 20.7133 5.42602 20.4136 4.9329C20.1551 4.51546 19.8554 4.11743 19.5278 3.84439C19.5109 3.83046 19.4905 3.8215 19.4689 3.8185C19.4472 3.8155 19.4251 3.81858 19.4052 3.8274L18.2226 4.34012C18.2052 4.34775 18.1898 4.35938 18.1776 4.37407C18.1654 4.38875 18.1569 4.40608 18.1527 4.42466C18.1484 4.44325 18.1486 4.46258 18.1531 4.48108C18.1576 4.49959 18.1665 4.51677 18.179 4.53124C18.4132 4.80549 18.9635 5.45956 19.1485 5.75809C19.3784 6.12941 19.6085 6.58691 19.8142 7.0802C21.2891 10.6273 20.6653 18.8535 15.6045 18.64C14.4359 18.5909 13.4603 18.0041 12.6794 17.0813C11.8905 16.1493 11.3269 14.8987 11.0248 13.6264C10.7201 12.3474 10.6996 11.1272 10.9173 10.2711C11.0266 9.8451 11.1812 9.55812 11.3421 9.38826C11.4078 9.31353 11.4892 9.25412 11.5803 9.21428C11.6716 9.17444 11.7705 9.15513 11.87 9.15769C12.3845 9.15769 12.7036 9.35186 12.9287 9.64972C13.1787 9.98044 13.3523 10.498 13.4068 11.1776C13.5148 12.5142 13.0598 14.4528 12.4148 15.6378C12.4036 15.6583 12.3984 15.6815 12.3999 15.7049C12.4013 15.7282 12.4095 15.7506 12.4233 15.7694L13.2169 16.844C13.2287 16.8604 13.2445 16.8736 13.2628 16.8822C13.2811 16.8907 13.3012 16.8945 13.3214 16.8933C13.3415 16.892 13.3611 16.8855 13.378 16.8746C13.3949 16.8635 13.4089 16.8485 13.4184 16.8307C14.2005 15.3635 15.0323 12.6793 14.9007 11.0502C14.8327 10.2026 14.6045 9.35731 14.1137 8.70749C13.5979 8.0249 12.8371 7.6196 11.87 7.6196C11.2263 7.6196 10.6795 7.87927 10.2664 8.31674C9.86883 8.73722 9.61711 9.29421 9.46723 9.88219C9.16811 11.055 9.22454 12.5458 9.56799 13.9911C9.91385 15.4442 10.5691 16.9332 11.5472 18.0897C12.5331 19.2553 13.8716 20.1064 15.5426 20.1769C21.854 20.4438 23.0742 10.9992 21.1927 6.47587ZM4.11692 17.7845C2.76266 15.8453 2.18139 13.5912 2.00057 11.7758C1.99804 11.75 2.00394 11.7241 2.01739 11.7018C2.03084 11.6796 2.05113 11.6623 2.07521 11.6527L3.32815 11.1418C3.34572 11.1347 3.36469 11.1319 3.38356 11.1334C3.40242 11.1348 3.42068 11.1408 3.43691 11.1506C3.45313 11.1603 3.46688 11.1736 3.47706 11.1896C3.48725 11.2056 3.49359 11.2236 3.4956 11.2424C3.67521 12.962 4.21946 15.3144 5.33891 16.9175C5.90683 17.7304 6.59003 18.3045 7.40672 18.5484C8.19913 18.785 9.31372 18.6273 10.6431 18.0229C10.6679 18.0114 10.6959 18.0087 10.7225 18.015C10.7491 18.0212 10.7728 18.0362 10.7899 18.0574L11.6964 19.1994C11.745 19.2607 11.7237 19.3511 11.6521 19.3833C10.1831 20.1812 8.187 20.3522 6.98259 19.993C5.7503 19.6247 4.81468 18.7837 4.11692 17.7845Z" fill="white"/>
</svg>

<svg xmlns="http://www.w3.org/2000/svg" width="24" height="24" fill="none" viewBox="0 0 24 24">
    <path fill="#fff" d="M21.193 6.476q-.33-.802-.78-1.543c-.258-.418-.558-.816-.885-1.089a.12.12 0 0 0-.123-.017l-1.182.513a.122.122 0 0 0-.044.191c.234.274.785.929.97 1.227.23.371.46.829.665 1.322 1.475 3.547.851 11.774-4.21 11.56-1.168-.05-2.144-.636-2.925-1.559-.789-.932-1.352-2.182-1.654-3.455-.305-1.279-.325-2.499-.108-3.355.11-.426.264-.713.425-.883a.68.68 0 0 1 .528-.23c.515 0 .834.194 1.059.492.25.33.423.848.478 1.528.108 1.336-.347 3.275-.992 4.46a.12.12 0 0 0 .008.131l.794 1.075a.12.12 0 0 0 .201-.013c.783-1.467 1.614-4.152 1.483-5.78-.068-.848-.296-1.694-.787-2.344-.516-.682-1.277-1.087-2.244-1.087-.644 0-1.19.26-1.604.697-.397.42-.649.977-.799 1.565-.299 1.173-.242 2.664.101 4.11.346 1.452 1.001 2.941 1.98 4.098.985 1.165 2.324 2.016 3.995 2.087 6.311.267 7.531-9.178 5.65-13.701M4.117 17.785C2.763 15.845 2.18 13.59 2 11.775a.12.12 0 0 1 .074-.122l1.253-.511a.122.122 0 0 1 .168.1c.18 1.72.723 4.072 1.843 5.676.568.812 1.251 1.387 2.068 1.63.792.237 1.907.08 3.236-.525a.12.12 0 0 1 .147.034l.906 1.142a.12.12 0 0 1-.044.184c-1.469.798-3.465.97-4.67.61-1.232-.368-2.167-1.21-2.865-2.208"/>
</svg>
